!!!OTL: "Die Graefin von Holland" FAHRE HIN DU HERRLICHKEIT
!!!ARE: Europa, Mitteleuropa, Deutschland, Niederrhein
!!!SCT: Z1051
!!!YEM: Copyright 1995, estate of Helmut Schaffrath.
**kern
*ICvox
*Ivox
*M2/4
*k[f#c#g#]
*A:
{8a
8a
8b
8a
=1
8b
8cc#
4a}
=2
{8b
16cc#
16b
4a
=3
8b
16cc#
16b
4a}
=4
{8cc#
8cc#
8b
8ee
=5
8ee
8dd#
4ee}
=6
{8ee
8ee
8ee
16dd
16cc#
=7
8dd
8ee
4cc#}
=8
{8.b
16cc#
8dd
8b
=9
8f#
16b
16a
8g#
8r}
=10
{8f#
16b
16a
4g#
=11
8f#
16b
16a
4g#}
=12
{8.a
16b
8cc#
16dd
16cc#
=13
8.b
16a
4a}
==
!!!AGN: Romanze, Ballade
!!!ONB: ESAC (Essen Associative Code) Database: ZUCCAL
!!!AMT: simple duple
!!!AIN: vox
!!!EED: Helmut Schaffrath
!!!EEV: 1.0
*-
